!!!OTL: 746. Das Lied vom Scheiden.
!!!ARE: Europa, Mitteleuropa, Deutschland
!!!SCT: E0746A
!!!TXL: @@DE
!!!YEM: Copyright 1995, estate of Helmut Schaffrath.
**kern	**text
*ICvox	*
*M6/8	*
*k[f#]	*
*G:	*
!LO:TX:a:t=Langsam.	!
!LO:TX:a:t=1818	!
{8g	Ach
=1	=1
4a	Gott
8g	wie
4f#	weh
8e	thut
=2	=2
4.e	Schei-
4d}	-den!
{8d	hat
=3	=3
4g	mir
8g	mein
8aL	Herʒ
8gJ	.
8a	ver-
=4	=4
[4.b	-wundt;
8b]	.
8r}	.
{8g	So
=5	=5
4a	trab
8g	ich
4f#	ü-
8e	-ber
=6	=6
4.e	d'Hei-
4d}	-den
{8d	und
=7	=7
4g	traur
8g	ʒu
8aL	al-
8gJ	.
8a	-ler
=8	=8
[4.b	Stund.
8b]	.
8r}	.
{8b	Der
=9	=9
4dd	Stunden
8dd	.
4dd	der
8dd	ſind
=10	=10
4dd	al-
8a	-ſo
4a}	viel,
{8a	mein
=11	=11
4cc	Herʒ
8cc	trägt
8eeL	heim-
8ddJ	.
8cc	-lichs
=12	=12
4.cc	Lei-
4b}	-den,
{8b	wie-
=13	=13
8cc	-wohl
8b	ich
8a	oft
4g	fröh-
8f#	-lich
=14	=14
[4.g	bin.
8g]	.
8r}	.
==	==
!!!AGN: Abschieds - Lied, Liebe
!!!ONB: ESAC (Essen Associative Code) Database: ERK2
!!!AMT: compound duple
!!!AIN: vox
!!!EED: Helmut Schaffrath
!!!EEV: 1.0
!!!GTL: Abschieds- und Wanderlieder
!!!URL-scan: https://rosdok.uni-rostock.de/mcrviewer/recordIdentifier/rosdok_ppn745177662/iview2/phys_0555.iview2?x=141.26379593861043&y=222.0676281391643&scale=0.7029437510502773&rotation=0&layout=singlePageLayout
!!!ENC: Anna Maria Matuszewska
!!!EEV: 2024/12/16
*-	*-
